svgs/light/sack-xmark.svg

<svg xmlns="http://www.w3.org/2000/svg" viewBox="0 0 512 512"><!--! Font Awesome Pro 6.4.2 by @fontawesome - https://fontawesome.com License - https://fontawesome.com/license (Commercial License) Copyright 2023 Fonticons, Inc. --><path d="M310.5 144h-109l-5.3 3.4C141.4 182.5 32 268.3 32 416c0 35.3 28.7 64 64 64H416c35.3 0 64-28.7 64-64c0-147.7-109.4-233.5-164.3-268.6l-5.3-3.4zm-3.8-41.8L355.1 32H156.9l48.4 70.2 6.7 9.8h87.8l6.7-9.8zM0 416C0 273.4 91.2 183.7 152.6 138.5c9.7-7.1 18.6-13.2 26.4-18.1L160.8 94 121.9 37.6C111 21.7 122.4 0 141.7 0H370.3c19.3 0 30.7 21.7 19.8 37.6L351.2 94 333 120.4c7.7 4.9 16.7 11 26.4 18.1C420.8 183.7 512 273.4 512 416c0 53-43 96-96 96H96c-53 0-96-43-96-96zM256 297.4l52.7-52.7c6.2-6.2 16.4-6.2 22.6 0s6.2 16.4 0 22.6L278.6 320l52.7 52.7c6.2 6.2 6.2 16.4 0 22.6s-16.4 6.2-22.6 0L256 342.6l-52.7 52.7c-6.2 6.2-16.4 6.2-22.6 0s-6.2-16.4 0-22.6L233.4 320l-52.7-52.7c-6.2-6.2-6.2-16.4 0-22.6s16.4-6.2 22.6 0L256 297.4z"/></svg>

<svg xmlns="http://www.w3.org/2000/svg" viewBox="0 0 512 512"><!--! Font Awesome Pro 6.1.1 by @fontawesome - https://fontawesome.com License - https://fontawesome.com/license (Commercial License) Copyright 2022 Fonticons, Inc. --><path d="M308.7 244.7C314.9 238.4 325.1 238.4 331.3 244.7C337.6 250.9 337.6 261.1 331.3 267.3L278.6 320L331.3 372.7C337.6 378.9 337.6 389.1 331.3 395.3C325.1 401.6 314.9 401.6 308.7 395.3L256 342.6L203.3 395.3C197.1 401.6 186.9 401.6 180.7 395.3C174.4 389.1 174.4 378.9 180.7 372.7L233.4 320L180.7 267.3C174.4 261.1 174.4 250.9 180.7 244.7C186.9 238.4 197.1 238.4 203.3 244.7L256 297.4L308.7 244.7zM.0003 416C.0003 273.4 91.2 183.7 152.6 138.5C162.3 131.4 171.3 125.4 179 120.4L121.9 37.62C110.1 21.7 122.4 0 141.7 0H370.3C389.6 0 401 21.7 390.1 37.62L332.1 120.4C340.7 125.4 349.7 131.4 359.4 138.5C420.8 183.7 512 273.4 512 416C512 469 469 512 416 512H96C42.98 512 0 469 0 416H.0003zM310.5 144H201.5L196.3 147.4C141.4 182.5 32 268.3 32 416C32 451.3 60.65 480 96 480H416C451.3 480 480 451.3 480 416C480 268.3 370.6 182.5 315.7 147.4L310.5 144zM355.1 32H156.9L212.1 112H299.9L355.1 32z"/></svg>
